X:531
T: ALS ICH AN EINEM SOMMERTAG
N: E0517
O: Europa, Mitteleuropa, Deutschland, Altmark
R: Liebes - Lied
M: 2/4
L: 1/16
K: G
D2 | D2G2G2G2 | D2B2G4
A4GFED | D2B2G2
D2 | D2G2G2G2 | D2B2G4
A4GFED | D2B2G2
G2 | A2A2A2F2 | GFGAF2
DF | A2A2A2G2 | F2E2D2z
D | G2GAB2B2 | A2d2B2z
D | GFGAB2d2 | A4d4 | G4z2

